launcher/android/assets/skins/day/svg/mapLetterbox0.svg

<svg enable-background="new 0 0 61.80 53.23" height="53.2278" viewBox="0 0 61.8 53.23" width="61.798" xmlns="http://www.w3.org/2000/svg" xmlns:xlink="http://www.w3.org/1999/xlink"><linearGradient id="a" gradientTransform="matrix(.304883580999 .952389627221 -.952389627221 .304883580999 -.146433917622 -.691744651921)" gradientUnits="objectBoundingBox" x1=".400668" x2="2.30334" y1="-.446188" y2="-.446188"><stop offset="0" stop-color="#5b5b5b"/><stop offset=".275862" stop-color="#656565" stop-opacity=".996078"/><stop offset=".383621" stop-color="#f7f7f7"/><stop offset=".396552" stop-color="#fefefe" stop-opacity=".0666667"/><stop offset="1" stop-color="#fff" stop-opacity="0"/></linearGradient><g stroke-linejoin="round"><path d="m1.20728 18.6954c0 6.3179-.0573 18.4644.01433 24.696.07163 6.2315.27219 6.5481.61601 6.9222.34382.3743.8309.8059 1.38961 1.1226.5587.3166 1.18904.518 3.66741.1871 2.47837-.3311 6.80476-1.1945 12.16266-2.4035 5.3578-1.2088 11.7471-2.7631 18.38-4.3317 6.6329-1.5688 13.5093-3.1518 17.3056-4.0728 3.7963-.9211 4.5126-1.1802 4.9711-1.3529.4584-.1727.659-.259.8452-.4893s.3581-.6044.4154-6.4329c.0573-5.8287 0-17.1116-.0573-22.82499-.0573-5.71338-.1146-5.85742-.7019-6.31787-.5874-.46057-1.7048-1.23767-2.4784-1.78455-.7736-.54687-1.2034-.863522-1.9053-1.050656-.702-.187012-1.6762-.244629-3.166-.100708-1.4899.143921-3.4955.48938-9.9995 1.683834-6.5039 1.19446-17.5061 3.23816-24.798 4.61975-7.2918 1.3816-10.87328 2.10108-13.0508 2.76307-2.17753.66202-2.95113 1.26652-3.30927 1.81332-.35815.5469-.30085 1.0362-.30085 7.354z" fill="#fff" stroke-width=".2"/><g stroke-width="2"><path d="m2.55837 19.9137c0 5.6531-.05417 16.5215.01355 22.0973s.25733 5.8591.58237 6.194c.32506.3348.78554.7211 1.31374 1.0044.52821.2833 1.12413.4636 3.46718.1674 2.34309-.2961 6.43329-1.0688 11.49859-2.1505 5.0653-1.0816 11.1058-2.4725 17.3765-3.8761 6.2707-1.4035 12.7717-2.82 16.3608-3.6443 3.589-.8241 4.2662-1.0559 4.6996-1.2104.4334-.1546.623-.2317.7991-.4378.1761-.206.3386-.5409.3928-5.7562.0541-5.2152 0-15.311-.0542-20.4232-.0542-5.11231-.1084-5.24109-.6637-5.6532-.5552-.41199-1.6116-1.10742-2.343-1.5968-.7314-.48926-1.1377-.77259-1.8013-.93995-.6636-.16748-1.5846-.21899-2.9932-.09021-1.4085.12879-3.3046.43787-9.4534 1.50672-6.1489 1.06872-16.5504 2.89734-23.4441 4.13354-6.8938 1.2362-10.27968 1.8801-12.33832 2.4724s-2.79 1.1332-3.12859 1.6226c-.33859.4892-.28442.9271-.28442 6.5803z" fill="#fff" fill-opacity=".517647" stroke="#7a7777" stroke-opacity=".517647"/><path d="m16.6573 44.4576c2.9661-3.3094 9.5754-9.9283 13.327-13.7529 3.7516-3.8245 4.6455-4.8547 5.9186-5.4985s2.9254-.9014 4.4559-.6953c1.5304.206 2.9389.8756 5.8508 2.8071 2.9119 1.9316 7.3272 5.1252 9.6296 6.9795 2.3024 1.8544 2.492 2.3694 2.5868 2.7557.0948.3864.0948.6439-.1219.9401-.2167.2961-.6501.631-7.4219 2.202-6.7718 1.5711-19.8821 4.3783-26.9113 5.8463-7.0291 1.468-7.9772 1.5967-8.7898 1.6612-.8126.0644-1.4898.0644 1.4762-3.2452z" fill="#fff" fill-opacity=".517647" stroke="#7a7777" stroke-opacity=".517647"/><path d="m3.81794 13.6553c.41985.4249 1.96383.6567 3.12858.9916 1.16476.3347 1.95029.7725 2.99316 1.3005 1.04282.5281 2.34302 1.1461 5.75602 2.833 3.413 1.687 8.9389 4.4426 12.6905 6.3485s5.7289 2.9618 7.2052 3.7345c1.4762.7726 2.4514 1.262 3.3317 1.4679.8804.2061 1.6659.1288 2.4243.0645.7585-.0645 1.4898-.116 2.1264-.4122.6366-.2961 1.1783-.837 1.693-1.5323.5146-.6954 1.0022-1.5453 2.8983-4.9063 1.8961-3.3609 5.2008-9.233 6.9344-12.6325 1.7336-3.39968 1.8961-4.32681 1.869-4.95779s-.2438-.96582-.6636-1.35217c-.4199-.38635-1.0429-.8241-2.0993-1.04309-1.0564-.21887-2.5462-.21887-10.2797 1.06885-7.7334 1.28772-21.7105 3.86328-29.2543 5.30542-7.54382 1.44228-8.6544 1.75138-9.56182 2.21498-.90743.4635-1.6117 1.0816-1.19184 1.5066z" fill="#fff" fill-opacity=".517647" stroke="#7a7777" stroke-opacity=".517647"/><path d="m15.9298 46.6079c3.1367-3.681 10.1263-11.043 14.0937-15.2967 3.9674-4.2539 4.9128-5.3998 6.2591-6.116 1.3464-.7161 3.0937-1.0026 4.7122-.7734s3.1081.974 6.1875 3.1224 7.7487 5.7006 10.1836 7.7629c2.4349 2.0625 2.6354 2.6354 2.7356 3.0651.1003.4297.1003.7162-.1289 1.0456-.2291.3294-.6875.7018-7.8489 2.4493-7.1614 1.7473-21.026 4.8697-28.4595 6.5025-7.4336 1.6328-8.4362 1.776-9.2956 1.8477-.8594.0716-1.5755.0716 1.5612-3.6094z" fill="none" stroke="#000"/><path d="m3.5694 14.4476c.42984.4576 2.01054.7072 3.203 1.0677 1.19246.3606 1.99667.832 3.06434 1.4005 1.06766.5685 2.39876 1.234 5.89296 3.0504s9.1514 4.7837 12.9923 6.8359c3.8408 2.052 5.8652 3.1891 7.3766 4.021 1.5113.8321 2.5097 1.3589 3.4109 1.5808.9013.2218 1.7055.1386 2.482.0692.7765-.0692 1.5253-.1247 2.177-.4437.6517-.3188 1.2063-.9012 1.7332-1.6499.5269-.7488 1.0261-1.6639 2.9673-5.2829 1.9412-3.6189 5.3244-9.9418 7.0993-13.6023 1.7748-3.66068 1.9412-4.65897 1.9134-5.33842-.0277-.67944-.2496-1.03991-.6794-1.45593-.4298-.41589-1.0677-.88733-2.1492-1.12317-1.0815-.23559-2.6068-.23559-10.5241 1.15088-7.9174 1.3866-22.2269 4.15979-29.9502 5.71274-7.72321 1.553-8.8602 1.8858-9.78921 2.3849-.92901.4993-1.65003 1.1648-1.22019 1.6223z" fill="#fff" stroke="url(#a)"/><path d="m1.01969 19.3085c0 6.2878-.057288 18.3762.01433 24.5781.07161 6.2018.27213 6.5168.61588 6.8893.34375.3724.83073.8021 1.38932 1.1172.55859.315 1.1888.5156 3.66665.1861 2.47786-.3293 6.80333-1.1887 12.16013-2.3918 5.3567-1.2031 11.7447-2.75 18.3762-4.3113 6.6315-1.5612 13.5065-3.1367 17.3021-4.0533 3.7955-.9167 4.5117-1.1745 4.97-1.3464.4583-.1718.6589-.2578.8451-.487.1862-.2291.358-.6016.4153-6.4022.0573-5.8008 0-17.0299-.0573-22.7162-.0573-5.68606-.1146-5.82937-.7018-6.28763-.5872-.45837-1.7044-1.23181-2.4779-1.77612-.7734-.54419-1.2031-.85937-1.9049-1.04553s-1.6758-.24353-3.1654-.10022c-1.4895.14319-3.4947.48694-9.9973 1.67578-6.5026 1.18872-17.5026 3.22266-24.7929 4.59753-7.2903 1.375-10.87106 2.09119-13.04814 2.74999s-2.95052 1.2604-3.30859 1.8047c-.358068.5443-.30078 1.0313-.30078 7.319z" fill="none" stroke="#000"/><path d="m2.35172 12.3475c.44401.4727 2.07682.7305 3.30859 1.1029 1.23176.3725 2.06249.8594 3.16535 1.4467 1.10286.5872 2.47784 1.2747 6.08724 3.151 3.6093 1.8763 9.4531 4.9414 13.4205 7.0612s6.0586 3.2943 7.6198 4.1536c1.5612.8594 2.5924 1.4037 3.5234 1.6329.931.2291 1.7617.1431 2.5638.0716.8021-.0716 1.5755-.1289 2.2487-.4584.6732-.3294 1.2461-.931 1.7903-1.7044.5443-.7735 1.0599-1.7188 3.0651-5.4571 2.0052-3.7382 5.5-10.2695 7.3334-14.05075 1.8333-3.78112 2.0052-4.81237 1.9765-5.51416-.0286-.7019-.2578-1.07422-.7018-1.5039-.444-.42969-1.1029-.91675-2.2201-1.16016-1.1171-.24353-2.6927-.24353-10.871 1.18872-8.1784 1.43237-22.9596 4.29688-30.9374 5.901-7.97786 1.60413-9.15233 1.94785-10.11197 2.46355-.95963.5156-1.70442 1.2031-1.26041 1.6757z" fill="none" stroke="#000"/></g></g></svg>

﻿<?xml version="1.0" encoding="utf-8"?>
<!DOCTYPE svg PUBLIC "-//W3C//DTD SVG 1.1//EN" "http://www.w3.org/Graphics/SVG/1.1/DTD/svg11.dtd">
<svg xmlns="http://www.w3.org/2000/svg" xmlns:xlink="http://www.w3.org/1999/xlink" version="1.1" baseProfile="full" width="61.798" height="53.2278" viewBox="0 0 61.80 53.23" enable-background="new 0 0 61.80 53.23" xml:space="preserve">
	<g>
		<path fill="#FFFFFF" fill-opacity="1" stroke-width="0.2" stroke-linejoin="round" d="M 1.20728,18.6954C 1.20728,25.0133 1.14998,37.1598 1.22161,43.3914C 1.29324,49.6229 1.4938,49.9395 1.83762,50.3136C 2.18144,50.6879 2.66852,51.1195 3.22723,51.4362C 3.78593,51.7528 4.41627,51.9542 6.89464,51.6233C 9.37301,51.2922 13.6994,50.4288 19.0573,49.2198C 24.4151,48.011 30.8044,46.4567 37.4373,44.8881C 44.0702,43.3193 50.9466,41.7363 54.7429,40.8153C 58.5392,39.8942 59.2555,39.6351 59.714,39.4624C 60.1724,39.2897 60.373,39.2034 60.5592,38.9731C 60.7454,38.7428 60.9173,38.3687 60.9746,32.5402C 61.0319,26.7115 60.9746,15.4286 60.9173,9.71521C 60.86,4.00183 60.8027,3.85779 60.2154,3.39734C 59.628,2.93677 58.5106,2.15967 57.737,1.61279C 56.9634,1.06592 56.5336,0.749268 55.8317,0.562134C 55.1297,0.375122 54.1555,0.317505 52.6657,0.461426C 51.1758,0.605347 49.1702,0.950806 42.6662,2.14526C 36.1623,3.33972 25.1601,5.38342 17.8682,6.76501C 10.5764,8.14661 6.99492,8.86609 4.8174,9.52808C 2.63987,10.1901 1.86627,10.7946 1.50813,11.3414C 1.14998,11.8883 1.20728,12.3776 1.20728,18.6954 Z "/>
		<g>
			<path fill="#FFFFFF" fill-opacity="0.517647" stroke-width="2" stroke-linejoin="round" stroke="#7A7777" stroke-opacity="0.517647" d="M 2.55837,19.9137C 2.55837,25.5668 2.5042,36.4352 2.57192,42.011C 2.63964,47.5868 2.82925,47.8701 3.15429,48.205C 3.47935,48.5398 3.93983,48.9261 4.46803,49.2094C 4.99624,49.4927 5.59216,49.673 7.93521,49.3768C 10.2783,49.0807 14.3685,48.308 19.4338,47.2263C 24.4991,46.1447 30.5396,44.7538 36.8103,43.3502C 43.081,41.9467 49.582,40.5302 53.1711,39.7059C 56.7601,38.8818 57.4373,38.65 57.8707,38.4955C 58.3041,38.3409 58.4937,38.2638 58.6698,38.0577C 58.8459,37.8517 59.0084,37.5168 59.0626,32.3015C 59.1167,27.0863 59.0626,16.9905 59.0084,11.8783C 58.9542,6.76599 58.9,6.63721 58.3447,6.2251C 57.7895,5.81311 56.7331,5.11768 56.0017,4.6283C 55.2703,4.13904 54.864,3.85571 54.2004,3.68835C 53.5368,3.52087 52.6158,3.46936 51.2072,3.59814C 49.7987,3.72693 47.9026,4.03601 41.7538,5.10486C 35.6049,6.17358 25.2034,8.0022 18.3097,9.2384C 11.4159,10.4746 8.03002,11.1185 5.97138,11.7108C 3.91274,12.3031 3.18138,12.844 2.84279,13.3334C 2.5042,13.8226 2.55837,14.2605 2.55837,19.9137 Z "/>
			<path fill="#FFFFFF" fill-opacity="0.517647" stroke-width="2" stroke-linejoin="round" stroke="#7A7777" stroke-opacity="0.517647" d="M 16.6573,44.4576C 19.6234,41.1482 26.2327,34.5293 29.9843,30.7047C 33.7359,26.8802 34.6298,25.85 35.9029,25.2062C 37.176,24.5624 38.8283,24.3048 40.3588,24.5109C 41.8892,24.7169 43.2977,25.3865 46.2096,27.318C 49.1215,29.2496 53.5368,32.4432 55.8392,34.2975C 58.1416,36.1519 58.3312,36.6669 58.426,37.0532C 58.5208,37.4396 58.5208,37.6971 58.3041,37.9933C 58.0874,38.2894 57.654,38.6243 50.8822,40.1953C 44.1104,41.7664 31.0001,44.5736 23.9709,46.0416C 16.9418,47.5096 15.9937,47.6383 15.1811,47.7028C 14.3685,47.7672 13.6913,47.7672 16.6573,44.4576 Z "/>
			<path fill="#FFFFFF" fill-opacity="0.517647" stroke-width="2" stroke-linejoin="round" stroke="#7A7777" stroke-opacity="0.517647" d="M 3.81794,13.6553C 4.23779,14.0802 5.78177,14.312 6.94652,14.6469C 8.11128,14.9816 8.89681,15.4194 9.93968,15.9474C 10.9825,16.4755 12.2827,17.0935 15.6957,18.7804C 19.1087,20.4674 24.6346,23.223 28.3862,25.1289C 32.1378,27.0348 34.1151,28.0907 35.5914,28.8634C 37.0676,29.636 38.0428,30.1254 38.9231,30.3313C 39.8035,30.5374 40.589,30.4601 41.3474,30.3958C 42.1059,30.3313 42.8372,30.2798 43.4738,29.9836C 44.1104,29.6875 44.6521,29.1466 45.1668,28.4513C 45.6814,27.7559 46.169,26.906 48.0651,23.545C 49.9612,20.1841 53.2659,14.312 54.9995,10.9125C 56.7331,7.51282 56.8956,6.58569 56.8685,5.95471C 56.8414,5.32373 56.6247,4.98889 56.2049,4.60254C 55.785,4.21619 55.162,3.77844 54.1056,3.55945C 53.0492,3.34058 51.5594,3.34058 43.8259,4.6283C 36.0925,5.91602 22.1154,8.49158 14.5716,9.93372C 7.02778,11.376 5.9172,11.6851 5.00978,12.1487C 4.10235,12.6122 3.39808,13.2303 3.81794,13.6553 Z "/>
		</g>
		<path fill="none" stroke-width="2" stroke-linejoin="round" stroke="#000000" stroke-opacity="1" d="M 15.9298,46.6079C 19.0665,42.9269 26.0561,35.5649 30.0235,31.3112C 33.9909,27.0573 34.9363,25.9114 36.2826,25.1952C 37.629,24.4791 39.3763,24.1926 40.9948,24.4218C 42.6133,24.651 44.1029,25.3958 47.1823,27.5442C 50.2617,29.6926 54.931,33.2448 57.3659,35.3071C 59.8008,37.3696 60.0013,37.9425 60.1015,38.3722C 60.2018,38.8019 60.2018,39.0884 59.9726,39.4178C 59.7435,39.7472 59.2851,40.1196 52.1237,41.8671C 44.9623,43.6144 31.0977,46.7368 23.6642,48.3696C 16.2306,50.0024 15.228,50.1456 14.3686,50.2173C 13.5092,50.2889 12.7931,50.2889 15.9298,46.6079 Z "/>
		<linearGradient id="SVGID_Stroke1_" gradientUnits="objectBoundingBox" x1="0.400668" y1="-0.446188" x2="2.30334" y2="-0.446188" gradientTransform="rotate(72.248840 0.400668 -0.446188)">
			<stop offset="0" stop-color="#5B5B5B" stop-opacity="1"/>
			<stop offset="0.275862" stop-color="#656565" stop-opacity="0.996078"/>
			<stop offset="0.383621" stop-color="#F7F7F7" stop-opacity="1"/>
			<stop offset="0.396552" stop-color="#FEFEFE" stop-opacity="0.0666667"/>
			<stop offset="1" stop-color="#FFFFFF" stop-opacity="0"/>
		</linearGradient>
		<path fill="#FFFFFF" fill-opacity="1" stroke-width="2" stroke-linejoin="round" stroke="url(#SVGID_Stroke1_)" d="M 3.5694,14.4476C 3.99924,14.9052 5.57994,15.1548 6.7724,15.5153C 7.96486,15.8759 8.76907,16.3473 9.83674,16.9158C 10.9044,17.4843 12.2355,18.1498 15.7297,19.9662C 19.2239,21.7826 24.8811,24.7499 28.722,26.8021C 32.5628,28.8541 34.5872,29.9912 36.0986,30.8231C 37.6099,31.6552 38.6083,32.182 39.5095,32.4039C 40.4108,32.6257 41.215,32.5425 41.9915,32.4731C 42.768,32.4039 43.5168,32.3484 44.1685,32.0294C 44.8202,31.7106 45.3748,31.1282 45.9017,30.3795C 46.4286,29.6307 46.9278,28.7156 48.869,25.0966C 50.8102,21.4777 54.1934,15.1548 55.9683,11.4943C 57.7431,7.83362 57.9095,6.83533 57.8817,6.15588C 57.854,5.47644 57.6321,5.11597 57.2023,4.69995C 56.7725,4.28406 56.1346,3.81262 55.0531,3.57678C 53.9716,3.34119 52.4463,3.34119 44.529,4.72766C 36.6116,6.11426 22.3021,8.88745 14.5788,10.4404C 6.85559,11.9934 5.7186,12.3262 4.78959,12.8253C 3.86058,13.3246 3.13956,13.9901 3.5694,14.4476 Z "/>
		<path fill="none" stroke-width="2" stroke-linejoin="round" stroke="#000000" stroke-opacity="1" d="M 1.01969,19.3085C 1.01969,25.5963 0.962402,37.6847 1.03402,43.8866C 1.10563,50.0884 1.30615,50.4034 1.6499,50.7759C 1.99365,51.1483 2.48063,51.578 3.03922,51.8931C 3.59781,52.2081 4.22802,52.4087 6.70587,52.0792C 9.18373,51.7499 13.5092,50.8905 18.866,49.6874C 24.2227,48.4843 30.6107,46.9374 37.2422,45.3761C 43.8737,43.8149 50.7487,42.2394 54.5443,41.3228C 58.3398,40.4061 59.056,40.1483 59.5143,39.9764C 59.9726,39.8046 60.1732,39.7186 60.3594,39.4894C 60.5456,39.2603 60.7174,38.8878 60.7747,33.0872C 60.832,27.2864 60.7747,16.0573 60.7174,10.371C 60.6601,4.68494 60.6028,4.54163 60.0156,4.08337C 59.4284,3.625 58.3112,2.85156 57.5377,2.30725C 56.7643,1.76306 56.3346,1.44788 55.6328,1.26172C 54.931,1.07556 53.957,1.01819 52.4674,1.1615C 50.9779,1.30469 48.9727,1.64844 42.4701,2.83728C 35.9675,4.026 24.9675,6.05994 17.6772,7.43481C 10.3869,8.80981 6.80614,9.526 4.62906,10.1848C 2.45198,10.8436 1.67854,11.4452 1.32047,11.9895C 0.962402,12.5338 1.01969,13.0208 1.01969,19.3085 Z "/>
		<path fill="none" stroke-width="2" stroke-linejoin="round" stroke="#000000" stroke-opacity="1" d="M 2.35172,12.3475C 2.79573,12.8202 4.42854,13.078 5.66031,13.4504C 6.89207,13.8229 7.7228,14.3098 8.82566,14.8971C 9.92852,15.4843 11.3035,16.1718 14.9129,18.0481C 18.5222,19.9244 24.366,22.9895 28.3334,25.1093C 32.3008,27.2291 34.392,28.4036 35.9532,29.2629C 37.5144,30.1223 38.5456,30.6666 39.4766,30.8958C 40.4076,31.1249 41.2383,31.0389 42.0404,30.9674C 42.8425,30.8958 43.6159,30.8385 44.2891,30.509C 44.9623,30.1796 45.5352,29.578 46.0794,28.8046C 46.6237,28.0311 47.1393,27.0858 49.1445,23.3475C 51.1497,19.6093 54.6445,13.078 56.4779,9.29675C 58.3112,5.51563 58.4831,4.48438 58.4544,3.78259C 58.4258,3.08069 58.1966,2.70837 57.7526,2.27869C 57.3086,1.849 56.6497,1.36194 55.5325,1.11853C 54.4154,0.875 52.8398,0.875 44.6615,2.30725C 36.4831,3.73962 21.7019,6.60413 13.7241,8.20825C 5.74624,9.81238 4.57177,10.1561 3.61213,10.6718C 2.6525,11.1874 1.90771,11.8749 2.35172,12.3475 Z "/>
	</g>
</svg>
